images/header/logo.svg

<svg width="76" height="76" viewBox="0 0 76 76" fill="none" xmlns="http://www.w3.org/2000/svg">
<g id="logo">
<path id="shave" fill-rule="evenodd" clip-rule="evenodd" d="M43.404 26.5778L44.82 27.6151C44.9251 27.6866 45.0128 27.7789 45.0773 27.8859C45.1418 27.9928 45.1816 28.1119 45.1939 28.2349C45.2062 28.3579 45.1908 28.482 45.1486 28.5987C45.1065 28.7155 45.0387 28.8222 44.9498 28.9116L36.5832 37.9149C36.4951 38.013 36.3719 38.0759 36.2378 38.0913C36.1038 38.1066 35.9687 38.0733 35.8589 37.9979L35.5346 37.7697C35.4367 37.6939 35.3146 37.6526 35.1887 37.6526C35.0629 37.6526 34.9408 37.6939 34.8428 37.7697L30.3225 41.7922C33.5303 41.4119 36.7118 40.8377 39.8481 40.0723C44.937 38.7824 49.7415 36.6214 54.0302 33.6933C54.0302 33.6933 55.3057 36.5353 54.3869 37.583C50.5522 42.0537 32.7058 45.986 26.6662 45.0385L22.5956 48.64L22.293 48.3185L25.5334 44.7477C25.3095 44.6567 25.1254 44.5506 24.985 44.4288C24.7162 43.7314 24.5277 43.008 24.4229 42.2713C25.6164 42.2187 26.8079 42.1394 27.9965 42.0336L41.8907 26.723C42.0721 26.5124 42.3328 26.379 42.6162 26.3518C42.8996 26.3246 43.1827 26.4058 43.404 26.5778ZM27.104 43.2892C27.0644 43.3553 27.0361 43.4274 27.0205 43.5029C26.9921 43.6397 27.0067 43.7815 27.0623 43.9104C27.1179 44.0393 27.2121 44.1494 27.333 44.2269C27.4539 44.3044 27.596 44.3458 27.7414 44.3458C27.8383 44.3472 27.9346 44.3299 28.0244 44.295C28.1142 44.26 28.1959 44.2081 28.2644 44.1423C28.3329 44.0766 28.387 43.9982 28.4235 43.912C28.4599 43.8258 28.4779 43.7335 28.4764 43.6405C28.4764 43.5783 28.4679 43.5168 28.4512 43.4574L28.4436 43.4642C28.3974 43.32 28.3042 43.1938 28.1777 43.1042C28.0512 43.0146 27.8982 42.9663 27.741 42.9663C27.5666 42.9633 27.3967 43.019 27.2607 43.1237C27.1993 43.171 27.1465 43.227 27.104 43.2892Z" fill="#303030"/>
<path id="text" fill-rule="evenodd" clip-rule="evenodd" d="M36.6665 13.9749L38.3851 16.2266L39.2186 16.1959L37.4178 13.8009C37.8979 13.6434 38.3158 13.3389 38.6115 12.9309C38.8889 12.5059 39.0223 12.0038 38.9922 11.498C38.9964 11.157 38.9226 10.8195 38.7764 10.511C38.6302 10.2025 38.4155 9.93101 38.1484 9.71711C37.5147 9.26958 36.7407 9.06262 35.9668 9.13371L33.2295 9.14394L33.4662 16.3085H34.2277L34.1556 14.0363L36.0903 13.9749C36.2822 13.9855 36.4746 13.9855 36.6665 13.9749ZM38.0842 12.2497C37.9932 12.4822 37.8497 12.6908 37.6647 12.8593C37.2052 13.2178 36.6328 13.4028 36.0491 13.3813L34.1351 13.4427L34.0116 9.8604L35.9668 9.78875C36.5378 9.74038 37.1081 9.88852 37.5824 10.2084C37.7769 10.3667 37.9326 10.5669 38.0378 10.7938C38.143 11.0208 38.1949 11.2686 38.1896 11.5185C38.2113 11.767 38.1752 12.0172 38.0842 12.2497ZM31.3164 15.9705L31.4708 16.6153L26.5107 17.7719L24.8642 10.7915L29.6802 9.67589L29.8243 10.3105L25.708 11.2623L26.2946 13.7392L29.9169 12.8897L30.0712 13.5243L26.4387 14.3636L27.0561 16.953L31.3164 15.9705ZM18.4431 13.3094L17.7536 13.6164L20.7379 20.1362L25.1011 18.1608L24.8335 17.5672L21.1598 19.2253L18.4431 13.3094ZM11.2713 17.8845L11.8888 17.424L15.8095 22.6439L19.0408 20.2386L19.4318 20.7606L15.5934 23.6162L11.2713 17.8845ZM9.55288 27.6694L11.9506 24.4863L14.0087 24.9161L14.4924 24.2816L6.74353 22.6235L6.30104 23.2273L10.1086 30.136L10.5819 29.5015L9.55288 27.6694ZM7.15516 23.4013L11.2714 24.3225L9.21329 27.0757L7.15516 23.4013ZM6.2915 30.2178L6.12685 30.924L8.4834 31.5176C8.73294 32.1395 8.77621 32.8245 8.60689 33.4725C8.49431 34.0068 8.24635 34.5035 7.88655 34.9157C7.53643 35.2973 7.09344 35.5828 6.60022 35.7447C6.08535 35.8885 5.54062 35.8885 5.02575 35.7447C4.49479 35.6318 4.00634 35.3729 3.61593 34.9976C3.23611 34.6454 2.96183 34.1955 2.82356 33.6977C2.67569 33.1735 2.66507 32.6203 2.79268 32.0908C2.86506 31.6831 3.02355 31.2953 3.2577 30.9531C3.49185 30.6108 3.79633 30.3218 4.15105 30.1052L3.78058 29.5423C3.36674 29.7742 3.01408 30.1004 2.75152 30.4941C2.47411 30.927 2.27556 31.4052 2.16496 31.9066C1.98017 32.5765 1.98017 33.2836 2.16496 33.9536C2.33153 34.5704 2.6705 35.1276 3.14257 35.5605C3.62197 36.0112 4.21631 36.3227 4.8611 36.4612C5.50448 36.6077 6.17531 36.583 6.80603 36.3895C7.41799 36.198 7.96587 35.8441 8.39079 35.366C8.83741 34.8597 9.14257 34.2456 9.27578 33.5851C9.38816 33.1092 9.41947 32.618 9.3684 32.1318C9.32429 31.6727 9.1878 31.2272 8.96706 30.8217L6.2915 30.2178ZM43.8286 14.3228L43.4581 16.769L42.7069 16.6564L43.0877 14.2511L40.9575 9.1336L41.7602 9.25642L43.5816 13.6166L46.6688 10.0036L47.3892 10.1571L43.8286 14.3228ZM54.9006 15.0496L54.0053 13.893L55.4151 13.7293V13.2278L53.9333 13.4325L54.4581 12.061L54.0156 11.8767L53.4599 13.2278L52.6675 12.061L52.2662 12.368L53.1718 13.5246L51.7105 13.6883V14.1796L53.1923 13.9852L52.6161 15.326L53.0483 15.5102L53.6143 14.1694L54.5095 15.3567L54.9006 15.0496ZM57.4419 22.1424C57.1989 21.7697 57.0473 21.3455 56.9994 20.9039L57.6066 20.6378C57.6521 21.0436 57.7855 21.4346 57.9976 21.7842C58.2275 22.1761 58.5274 22.5229 58.8826 22.8077C59.2494 23.157 59.7174 23.3826 60.2204 23.4525C60.4021 23.4692 60.5852 23.4416 60.7538 23.3721C60.9223 23.3025 61.0713 23.1931 61.1877 23.0533C61.273 22.9597 61.3381 22.8495 61.3788 22.7298C61.4195 22.6101 61.4351 22.4833 61.4244 22.3573C61.3903 22.1079 61.3064 21.8677 61.1774 21.6511C60.984 21.337 60.7745 21.0329 60.5497 20.7402C60.2757 20.3832 60.0281 20.0069 59.8088 19.6143C59.6411 19.3205 59.5492 18.99 59.5412 18.6522C59.5405 18.2729 59.6838 17.9074 59.9425 17.6287C60.1668 17.3586 60.4627 17.1565 60.7967 17.0453C61.1698 16.9381 61.5658 16.9381 61.9389 17.0453C62.4197 17.2017 62.864 17.4523 63.2458 17.7822C63.5626 18.0443 63.843 18.3472 64.0794 18.6829C64.298 18.9942 64.4615 19.3404 64.563 19.7064L63.9765 20.0135C63.8742 19.6723 63.7216 19.3481 63.5237 19.0514C63.3265 18.7865 63.0947 18.5489 62.8342 18.3452C62.4728 17.9974 62.0062 17.778 61.5067 17.7208C61.3231 17.7056 61.1386 17.7359 60.9698 17.8092C60.8009 17.8824 60.653 17.9963 60.5394 18.1405C60.4519 18.2327 60.3854 18.3426 60.3445 18.4627C60.3037 18.5828 60.2894 18.7103 60.3027 18.8365C60.3268 19.0946 60.4114 19.3434 60.5497 19.5631C60.6937 19.7986 60.8996 20.1056 61.1774 20.4741C61.4528 20.8229 61.7006 21.1924 61.9183 21.5795C62.0896 21.8723 62.185 22.2029 62.1962 22.5416C62.1969 22.9208 62.0536 23.2864 61.7948 23.5651C61.5697 23.8389 61.2694 24.0416 60.9304 24.1485C60.558 24.2603 60.1606 24.2603 59.7882 24.1485C59.3041 23.9926 58.8563 23.742 58.471 23.4115C58.0556 23.052 57.7072 22.6223 57.4419 22.1424ZM66.3422 21.5898L67.7932 23.6368L62.4318 27.4033L62.864 28.0277L68.2357 24.2919L69.6867 26.3389L70.2218 25.9602L66.8773 21.2111L66.3422 21.5898ZM65.4886 32.05C65.6723 31.4314 66.0293 30.8776 66.5177 30.4533C66.9955 30.0277 67.5776 29.7347 68.2054 29.6038C68.8453 29.4577 69.5127 29.4824 70.14 29.6754C70.7454 29.8745 71.2881 30.2273 71.7145 30.6989C72.1578 31.2062 72.4594 31.8203 72.5892 32.4799C72.7596 33.1274 72.7596 33.8077 72.5892 34.4552C72.4004 35.0715 72.0443 35.624 71.5601 36.0519C71.0691 36.489 70.4727 36.7922 69.8289 36.9321C69.1851 37.072 68.5159 37.0438 67.8863 36.8502C67.2763 36.6608 66.7312 36.3065 66.3119 35.8267C65.8706 35.3221 65.5691 34.7118 65.4372 34.0561C65.28 33.3942 65.2977 32.7031 65.4886 32.05ZM66.8367 35.3047C67.1803 35.6939 67.6255 35.9809 68.123 36.1338C68.6358 36.2817 69.1778 36.2993 69.6992 36.1848C70.2206 36.0704 70.7047 35.8276 71.1073 35.4787C71.4871 35.1312 71.7676 34.6897 71.9203 34.1993C72.0638 33.6815 72.0778 33.1367 71.9612 32.6122C71.8447 32.0878 71.601 31.5996 71.2514 31.1902C70.8927 30.7992 70.4338 30.5126 69.9239 30.3612C69.4046 30.224 68.8584 30.224 68.3391 30.3612C67.8152 30.4612 67.3302 30.7059 66.9396 31.0674C66.5563 31.4162 66.2753 31.8619 66.1266 32.357C65.9869 32.8767 65.9869 33.4238 66.1266 33.9435C66.2393 34.4513 66.4842 34.9207 66.8367 35.3047ZM67.3725 42.9093L64.7073 43.9328L64.5117 44.7004L67.352 43.6769C67.3545 44.1823 67.5302 44.6717 67.8501 45.0644C68.1701 45.457 68.6151 45.7294 69.1117 45.8365C69.4377 45.942 69.7839 45.971 70.1231 45.9213C70.4622 45.8715 70.7853 45.7445 71.0669 45.55C71.6797 45.0768 72.103 44.4018 72.2606 43.6462L72.9604 41.0567L66.0039 39.2042L65.8084 39.9309L67.99 40.4938L67.4857 42.3464C67.4795 42.37 67.4731 42.3935 67.4667 42.4168L67.4581 42.4477C67.4145 42.6054 67.3725 42.7574 67.3725 42.9093ZM68.6354 44.781C68.4387 44.6279 68.2752 44.4369 68.1546 44.2194C67.9448 43.6776 67.9339 43.0796 68.1238 42.5306L68.6177 40.6883L72.1062 41.6197L71.6123 43.462C71.5018 44.0309 71.1918 44.5423 70.7376 44.9051C70.5241 45.034 70.2866 45.1185 70.0394 45.1537C69.7922 45.1889 69.5404 45.1741 69.2991 45.11C69.0578 45.046 68.8321 44.934 68.6354 44.781ZM61.0122 50.5242L60.4874 50.125L63.5746 46.0822L69.3168 50.4116L66.3325 54.3317L65.8077 53.9325L68.3289 50.6266L66.2708 49.0811L64.0171 52.039L63.5026 51.6501L65.8077 48.6921L63.6775 47.0852L61.0122 50.5242ZM57.134 58.7636L58.6055 58.6818L57.8543 59.9202L58.2865 60.1659L58.9657 58.8353L59.7478 60.0635L60.1491 59.8076L59.3568 58.5896H60.8489V58.0881L59.3773 58.17L60.0771 56.8804L59.6346 56.645L58.9966 58.0165L58.2145 56.7883L57.8132 57.0442L58.6055 58.2621L57.134 58.2724V58.7636ZM45.2276 57.8629L46.4728 58.5487C46.6816 58.1498 46.9729 57.7995 47.3277 57.5208C47.6824 57.242 48.0925 57.0412 48.5309 56.9315C48.9399 56.8047 49.3701 56.7595 49.7967 56.7985C50.1668 56.8267 50.5224 56.954 50.8257 57.1669C51.0999 57.3725 51.3017 57.6591 51.402 57.9857C51.526 58.3898 51.5042 58.8242 51.3403 59.214C51.0821 59.7435 50.7339 60.2248 50.3112 60.6366C50.6505 60.818 50.9652 61.0415 51.2477 61.3019C51.4417 61.5014 51.5862 61.7432 51.6696 62.0081C51.7223 62.2146 51.7256 62.4306 51.6791 62.6386C51.6326 62.8465 51.5377 63.0408 51.402 63.2056C51.1273 63.5993 50.7174 63.8796 50.2495 63.9937C49.8386 64.1496 49.3843 64.1496 48.9734 63.9937C48.7907 63.9156 48.6287 63.7963 48.5001 63.6454C48.3716 63.4944 48.28 63.3159 48.2325 63.1238C48.1246 62.7859 48.1504 62.4198 48.3045 62.1002C48.5407 61.6349 48.8499 61.21 49.2204 60.8413L46.7404 59.4698C46.6457 59.9518 46.6249 60.4453 46.6786 60.9334H46.0509C46.0086 60.3323 46.0784 59.7285 46.2567 59.1525L44.9601 58.4361L45.2276 57.8629ZM47.0182 58.8864L49.7452 60.391C50.1026 60.0515 50.3985 59.6534 50.6199 59.214C50.733 58.9172 50.733 58.5895 50.6199 58.2928C50.5733 58.1155 50.483 57.9525 50.3572 57.8185C50.2315 57.6845 50.0742 57.5837 49.8996 57.5252C49.4724 57.3816 49.0096 57.3816 48.5824 57.5252C48.2333 57.6168 47.9086 57.7834 47.6313 58.0133C47.3539 58.2431 47.1306 58.5307 46.977 58.8557L47.0182 58.8864ZM50.8875 62.9805C50.9547 62.8674 50.9969 62.7413 51.0111 62.6106C51.0253 62.48 51.0112 62.3478 50.9698 62.2231C50.9068 62.021 50.7935 61.8379 50.6405 61.6908C50.3786 61.4711 50.092 61.2822 49.7864 61.1279C49.4744 61.4348 49.2014 61.7785 48.9734 62.1514C48.849 62.3839 48.8195 62.6552 48.8911 62.9088C48.9237 63.0259 48.981 63.1348 49.059 63.2283C49.1371 63.3218 49.2342 63.3978 49.3439 63.4513C49.6059 63.5495 49.8949 63.5495 50.1568 63.4513C50.4366 63.377 50.6809 63.2066 50.8463 62.9702L50.8875 62.9805ZM32.8283 58.5895L32.6843 65.7541L33.312 65.7643L36.5124 60.5137L39.5378 65.8667H40.1656L40.2993 58.7021H39.5687L39.4658 64.403L36.7285 59.5516H36.3683L33.4458 64.3212L33.559 58.5895H32.8283ZM29.1039 58.2619C29.5745 58.708 29.9112 59.2754 30.0766 59.9007C30.2419 60.526 30.2294 61.1847 30.0403 61.8033C29.8713 62.4367 29.5335 63.0131 29.0627 63.4716C28.6052 63.9189 28.0315 64.2308 27.4059 64.3723C26.746 64.5204 26.059 64.4992 25.4096 64.3109C24.7623 64.1537 24.1668 63.8328 23.6807 63.3795C23.2172 62.9391 22.8858 62.3792 22.7237 61.7623C22.5655 61.1247 22.5771 60.457 22.7576 59.8252C22.9381 59.1933 23.2811 58.6193 23.7528 58.1596C24.2022 57.7135 24.7637 57.3954 25.3787 57.2384C26.0352 57.0908 26.7187 57.1119 27.3648 57.2998C28.0187 57.4647 28.6182 57.7963 29.1039 58.2619ZM25.5948 57.9037C25.0914 58.0203 24.6313 58.2757 24.2673 58.6406C23.8882 59.0162 23.6181 59.4864 23.4852 60.0019C23.3417 60.5141 23.3417 61.0556 23.4852 61.5679C23.6066 62.0662 23.867 62.5203 24.2364 62.878C24.6239 63.2548 25.1023 63.5262 25.6257 63.6661C26.149 63.7986 26.6974 63.7986 27.2207 63.6661C27.7245 63.5429 28.1862 63.2885 28.5585 62.9291C28.9356 62.5521 29.2054 62.0824 29.3406 61.5679C29.4844 61.0522 29.4844 60.5073 29.3406 59.9917C29.2089 59.4952 28.9459 59.0428 28.5791 58.6816C28.1896 58.3042 27.7068 58.0359 27.1796 57.9037C26.661 57.7612 26.1133 57.7612 25.5948 57.9037ZM18.0828 55.9591L17.8049 53.1445L17.0743 52.6737L17.3727 55.6828C16.8793 55.5625 16.3602 55.602 15.8909 55.7954C15.4287 56.0111 15.0496 56.3703 14.8104 56.8189C14.6279 57.1052 14.5128 57.4287 14.4736 57.7655C14.4344 58.1022 14.4721 58.4434 14.584 58.7635C14.887 59.4742 15.4341 60.0546 16.1276 60.4012L18.4738 61.742L22.0755 55.5702L21.4067 55.1915L20.2747 57.1771L18.5973 56.215C18.4311 56.1195 18.2593 56.0341 18.0828 55.9591ZM15.9645 56.6968C16.1631 56.5473 16.3901 56.4391 16.6318 56.3788V56.3276C17.2261 56.2967 17.8124 56.4742 18.2886 56.8291L19.9454 57.781L18.1445 60.8515L16.4877 59.8996C15.9637 59.6418 15.5455 59.2114 15.3043 58.6817C15.2345 58.4437 15.2137 58.1943 15.2431 57.9482C15.2726 57.702 15.3516 57.4644 15.4756 57.2494C15.5995 57.0344 15.7658 56.8464 15.9645 56.6968ZM11.7137 48.3443L12.1768 47.8837L15.7271 51.5172L10.5818 56.5119L7.15498 52.991L7.62835 52.5304L10.5406 55.5089L12.3003 53.7382L9.74822 51.0975L10.2422 50.6267L12.8457 53.2878L14.7598 51.4353L11.7137 48.3443ZM4.31627 42.9094L4.06929 44.3219L2.9579 43.3598L2.61831 43.7282L3.76057 44.6801L2.38163 45.1612L2.53599 45.5603L3.91493 45.069L3.62679 46.5224L4.12074 46.6145L4.37801 45.1612L5.47911 46.1847L5.80841 45.8162L4.66615 44.8541L6.05538 44.3833L5.89073 43.933L4.52208 44.4345L4.79993 42.9811L4.31627 42.9094Z" fill="#303030"/>
</g>
</svg>

<svg viewBox="0 0 76 76" fill="none" xmlns="http://www.w3.org/2000/svg">
  <g fill-rule="evenodd" clip-rule="evenodd" fill="#303030">
    <path d="m43.404 26.578 1.416 1.037a.873.873 0 0 1 .257.27.837.837 0 0 1-.127 1.027l-8.367 9.003a.558.558 0 0 1-.724.083l-.324-.228a.565.565 0 0 0-.692 0l-4.52 4.022c3.207-.38 6.389-.954 9.525-1.72a44.576 44.576 0 0 0 14.182-6.379s1.276 2.842.357 3.89c-3.835 4.47-21.681 8.403-27.72 7.456l-4.071 3.601-.303-.322 3.24-3.57a1.96 1.96 0 0 1-.548-.32 9.859 9.859 0 0 1-.562-2.157 80.068 80.068 0 0 0 3.574-.237L41.89 26.723a1.112 1.112 0 0 1 1.513-.145Zm-16.3 16.711a.686.686 0 0 0 .229.938c.12.077.263.119.408.119a.752.752 0 0 0 .523-.204.695.695 0 0 0 .212-.502.676.676 0 0 0-.025-.183l-.007.007a.706.706 0 0 0-.266-.36.756.756 0 0 0-.437-.138.766.766 0 0 0-.637.323ZM36.666 13.975l1.72 2.252.833-.031-1.801-2.395c.48-.158.898-.462 1.194-.87.277-.425.41-.927.38-1.433a2.24 2.24 0 0 0-.844-1.78 3.265 3.265 0 0 0-2.181-.584l-2.737.01.236 7.164h.762l-.072-2.272 1.934-.061c.192.01.385.01.576 0Zm1.418-1.725a1.626 1.626 0 0 1-.42.61 2.478 2.478 0 0 1-1.615.521l-1.914.062-.123-3.583 1.955-.071a2.51 2.51 0 0 1 1.615.42 1.65 1.65 0 0 1 .608 1.31 1.62 1.62 0 0 1-.106.73Zm-6.768 3.72.155.645-4.96 1.157-1.647-6.98 4.816-1.116.144.634-4.116.952.587 2.477 3.622-.85.154.635-3.632.84.617 2.589 4.26-.982Zm-12.873-2.66-.69.306 2.985 6.52 4.363-1.975-.267-.594-3.674 1.658-2.717-5.916Zm-7.172 4.574.618-.46 3.92 5.22 3.232-2.405.39.522-3.838 2.855-4.322-5.732ZM9.553 27.67l2.398-3.183 2.058.43.483-.634-7.748-1.659-.443.604 3.808 6.909.473-.634-1.03-1.833Zm-2.398-4.268 4.116.922-2.058 2.753L7.155 23.4Zm-.864 6.817-.164.706 2.356.594c.25.621.293 1.306.124 1.954a3.197 3.197 0 0 1-.72 1.444c-.35.381-.794.667-1.287.829a2.927 2.927 0 0 1-1.574 0 2.907 2.907 0 0 1-1.41-.747 2.792 2.792 0 0 1-.792-1.3 3.177 3.177 0 0 1-.031-1.607 2.918 2.918 0 0 1 1.358-1.986l-.37-.563a2.998 2.998 0 0 0-1.03.952 4.358 4.358 0 0 0-.586 1.413 3.849 3.849 0 0 0 0 2.047c.167.616.506 1.174.978 1.606.479.451 1.073.763 1.718.901a3.775 3.775 0 0 0 1.945-.072 3.53 3.53 0 0 0 1.585-1.023 3.84 3.84 0 0 0 .885-1.78c.112-.477.143-.968.092-1.454a3.425 3.425 0 0 0-.4-1.31l-2.676-.604ZM43.83 14.323l-.37 2.446-.752-.113.38-2.405-2.13-5.117.803.122 1.822 4.36 3.087-3.612.72.153-3.56 4.166Zm11.072.727-.896-1.157 1.41-.164v-.501l-1.482.204.525-1.371-.442-.184-.556 1.35-.793-1.166-.4.307.905 1.157-1.461.163v.492l1.481-.195-.576 1.341.432.184.566-1.34.896 1.187.39-.307Zm2.54 7.092A2.825 2.825 0 0 1 57 20.904l.608-.266c.045.406.178.797.39 1.146.23.392.53.739.886 1.024.366.349.834.575 1.337.645a1.129 1.129 0 0 0 .968-.4.92.92 0 0 0 .236-.696 1.877 1.877 0 0 0-.247-.706 10.742 10.742 0 0 0-.627-.91 9.29 9.29 0 0 1-.741-1.127 2.038 2.038 0 0 1-.268-.962c0-.38.143-.745.402-1.023.224-.27.52-.473.854-.584.373-.107.769-.107 1.142 0 .48.157.925.407 1.307.737.317.262.597.565.833.9.219.312.383.658.484 1.024l-.587.308a3.594 3.594 0 0 0-.452-.963 3.704 3.704 0 0 0-.69-.706 2.29 2.29 0 0 0-1.327-.624 1.117 1.117 0 0 0-.968.42.88.88 0 0 0-.236.696c.024.258.108.506.247.726.144.236.35.543.627.911.276.349.524.718.741 1.105.172.293.267.624.278.963a1.5 1.5 0 0 1-.401 1.023 1.832 1.832 0 0 1-.865.583c-.372.112-.77.112-1.142 0a3.823 3.823 0 0 1-1.317-.736 4.66 4.66 0 0 1-1.03-1.27Zm8.901-.552 1.451 2.047-5.361 3.766.432.625 5.372-3.736 1.45 2.047.536-.379-3.345-4.749-.535.379Zm-.853 10.46a3.396 3.396 0 0 1 1.029-1.597 3.66 3.66 0 0 1 1.687-.85 3.745 3.745 0 0 1 1.935.072c.605.2 1.148.552 1.575 1.024a3.83 3.83 0 0 1 .874 1.78 3.88 3.88 0 0 1 0 1.976 3.499 3.499 0 0 1-1.029 1.597 3.825 3.825 0 0 1-3.674.798 3.449 3.449 0 0 1-1.574-1.023 3.84 3.84 0 0 1-.875-1.77 3.92 3.92 0 0 1 .052-2.007Zm1.348 3.255c.343.389.788.676 1.286.829a3.207 3.207 0 0 0 2.984-.655c.38-.348.66-.79.813-1.28a3.278 3.278 0 0 0-.669-3.009 2.935 2.935 0 0 0-1.327-.829 3.102 3.102 0 0 0-1.585 0c-.524.1-1.009.345-1.4.706a2.854 2.854 0 0 0-.812 1.29c-.14.52-.14 1.067 0 1.587.112.507.357.977.71 1.36Zm.535 7.604-2.665 1.024-.195.767 2.84-1.023c.002.505.178.995.498 1.387.32.393.765.665 1.262.773a2.234 2.234 0 0 0 1.955-.287 3.242 3.242 0 0 0 1.194-1.904l.7-2.59-6.957-1.852-.196.727 2.182.563-.504 1.852a6.534 6.534 0 0 1-.02.07l-.008.032c-.043.157-.085.31-.085.461Zm1.263 1.872a1.846 1.846 0 0 1-.48-.562 2.454 2.454 0 0 1-.031-1.688l.494-1.843 3.488.932-.494 1.842c-.11.569-.42 1.08-.874 1.443a1.857 1.857 0 0 1-2.103-.124Zm-7.623 5.743-.525-.399 3.088-4.043 5.742 4.33-2.984 3.92-.525-.4 2.52-3.305-2.057-1.546-2.254 2.958-.514-.389 2.305-2.958-2.13-1.607-2.666 3.44Zm-3.878 8.24 1.471-.082-.75 1.238.431.246.68-1.33.782 1.227.401-.255-.792-1.218h1.492v-.502l-1.472.082.7-1.29-.442-.235-.638 1.371-.782-1.228-.402.256.792 1.218-1.471.01v.492Zm-11.906-.901 1.245.686a3.186 3.186 0 0 1 2.058-1.617 3.27 3.27 0 0 1 1.266-.134c.37.029.725.156 1.029.369.274.206.476.492.576.819.124.404.102.838-.062 1.228a5.118 5.118 0 0 1-1.029 1.423c.34.181.654.404.937.665.194.2.338.441.422.706a1.355 1.355 0 0 1-.268 1.198 1.976 1.976 0 0 1-1.153.788 1.8 1.8 0 0 1-1.276 0 1.286 1.286 0 0 1-.74-.87 1.386 1.386 0 0 1 .072-1.024c.236-.465.545-.89.915-1.259l-2.48-1.371a4.844 4.844 0 0 0-.061 1.463h-.628a4.867 4.867 0 0 1 .206-1.78l-1.297-.717.268-.573Zm1.79 1.023 2.727 1.505a4.28 4.28 0 0 0 .875-1.177 1.293 1.293 0 0 0 0-.921 1.103 1.103 0 0 0-.72-.768 2.068 2.068 0 0 0-1.318 0 2.474 2.474 0 0 0-1.605 1.33l.041.031Zm3.87 4.094a.918.918 0 0 0 .082-.757 1.258 1.258 0 0 0-.33-.532 4.45 4.45 0 0 0-.854-.563c-.312.307-.585.65-.813 1.023a1.018 1.018 0 0 0-.082.758.858.858 0 0 0 .453.542c.262.099.55.099.813 0 .28-.074.524-.244.69-.48l.04.01Zm-18.06-4.39-.144 7.164.628.01 3.2-5.25 3.026 5.353h.628l.133-7.165h-.73l-.103 5.701-2.738-4.851h-.36l-2.922 4.77.113-5.733h-.73Zm-3.724-.328a3.472 3.472 0 0 1 .936 3.541 3.638 3.638 0 0 1-.977 1.669 3.462 3.462 0 0 1-1.657.9 4.014 4.014 0 0 1-1.996-.061 3.876 3.876 0 0 1-1.73-.932c-.463-.44-.794-1-.956-1.617a3.757 3.757 0 0 1 1.029-3.602 3.556 3.556 0 0 1 1.626-.922 3.984 3.984 0 0 1 1.986.062 3.886 3.886 0 0 1 1.739.962Zm-3.51-.358a2.752 2.752 0 0 0-1.327.737c-.379.375-.649.845-.782 1.36a2.902 2.902 0 0 0 0 1.567c.122.498.382.952.751 1.31.388.377.866.648 1.39.788a3.25 3.25 0 0 0 1.595 0 2.927 2.927 0 0 0 1.337-.737c.378-.377.647-.847.783-1.361a2.933 2.933 0 0 0 0-1.576 2.873 2.873 0 0 0-.762-1.31 3.092 3.092 0 0 0-1.4-.778 2.991 2.991 0 0 0-1.584 0Zm-7.511-1.945-.278-2.815-.73-.47.298 3.009a2.399 2.399 0 0 0-1.482.112 2.35 2.35 0 0 0-1.08 1.024 2.243 2.243 0 0 0-.227 1.944c.303.711.85 1.292 1.544 1.638l2.346 1.341 3.602-6.172-.67-.379-1.131 1.986-1.678-.962a4.802 4.802 0 0 0-.514-.256Zm-2.118.738c.198-.15.425-.258.667-.318v-.051c.594-.031 1.18.146 1.657.501l1.656.952-1.8 3.07-1.657-.951a2.524 2.524 0 0 1-1.184-1.218 1.833 1.833 0 0 1 .66-1.985Zm-4.251-8.353.463-.46 3.55 3.633-5.145 4.995-3.427-3.521.473-.46 2.913 2.978 1.76-1.77-2.553-2.642.494-.47 2.604 2.66 1.914-1.852-3.046-3.09ZM4.316 42.91l-.247 1.413-1.111-.962-.34.368 1.143.952-1.38.481.155.4 1.379-.492-.288 1.453.494.093.257-1.454 1.101 1.024.33-.369-1.143-.962 1.39-.47-.165-.451-1.369.502.278-1.454-.484-.072Z"/>
  </g>
</svg>
